X:224
T: Der geystliche Meyen
N: A0578
O: Europa, Mitteleuropa, Deutschland
N: Mainzer Cantual 1605.
R: Romanze, Ballade, Lied, religioeses Lied
M: 4/2
L: 1/4
K: F
F2 | F2F2F2D2 | C4G3A | G2F2E2D2 | C3DC2
F2 | F2F2E2C2 | F4G4 | G2G2A2A2 | G3FG4 | c3BA2G2 | F4B2
G2 | A2G2F2E2 | F6

@@@ Tune index: 537
